X:29
T:Lipan Matin Nahkahousut [masurkka]
T:Matti Lippa's leather pants
S:http://dickatlee.com/music/finnish
Z:ABC tidied up by Jack Campin, 2015
M:3/4
L:1/8
Q:1/4=150
R:masurkka
P:AABB
K:D
P:A
"D" A>d .f2 e2|"G"d>c .B2 B2|[1 "A7"A>c .c2 c2|"D" A>d   .d2 d2:|\
                             [2 "A7"A>c  cA Bc|"D".d2     d4   ||
P:B
"A7"g>f .e2 g2|"D"f>e .d2 f2|[1 "A7"e>d .c2 e2|"D" d>f   .a2 a2:|\
                             [2 "A7"e>d .c2 e2|"D"[d2D2] [d4D4]|]

